X: 734
T: Aileen's
R: jig
M: 6/8
K: Dmajor
A|:D2A AGE|EFA GFD|EAc B/c/de|dcA E2D|
B2G B/c/dc|B2A AGE|EFA AGF|E2D EGF|
D2A AGF|FGA GFD|B2G B/c/dc|dAG FED|
EFA dfg|a2g fdA|D2A EAc|1 d3 d2A:|2 d3 dec||
|:B3 BAF|FEF G2A|AGF Adf|g3 fga|
e3 efg|fed B2F|GdG FdF|E3 EDC|
D2A AGF|FGA GFD|B2G B/c/dc|dAG FED|
EFA dfg|a2g fdA|D2A EAc|1 d3 dec:|2 d3 d2||

